X:1
T:Chopin Etude Op. 25 No. 2 F Minor"The Bees"
T:Chopin 
%%score { 1 | 2 }
L:1/8
Q:1/4=224
M:4/4
K:Ab
V:1 treble nm="Piano"
V:2 bass 
V:1
"^Presto" c2 |[Q:1/2=80] (3cd=B[Q:1/2=95] (3ced[Q:1/2=110] (3cd=B[Q:1/2=112] (3c^fg | %2
 (3cd=B (3ced (3cdB (3caf |!<(! (3=efe (3^deg (3bc'b (3=ab!<)!_d' | %4
 (3c'd'c' (3=bc'g (3a_ba (3ga=e | (3fgf (3=efc (3d_ed (3cd=B | (3cdc (3=BcG (3A_BA (3GAF | %7
!<(! (3=EGB (3d=eg (3bd'c' (3ba!<)!g | %8
[Q:1/2=100]!>(! (3bc'a[Q:1/2=110] (3gaf[Q:1/2=115] (3=egf (3ef!>)!_d | (3cd=B (3ced (3cd=B (3c^fg | %10
 (3cd=B (3ced (3cdB (3caf |!<(! (3_efe (3=deg (3bc'b (3=ab!<)!f' | %12
 (3e'f'e' (3=d'e'=b (3c'_d'c' (3bc'g | (3a_ba (3ga=e (3fgf (3efd | %14
 (3cdB!<(! (3GAB (3cde (3fg!<)!a |!>(! (3gaf (3efd (3cdB (3cF!>)!G |!p! (3ABA (3GA=A (3BcB (3cFG | %17
 (3_ABA (3GA=A (3BcB (3cFG | (3_ABA (3GAB (3cdc (3=Bcd | %19
[Q:1/2=110] (3cdc[Q:1/2=95] (3=Bcd[Q:1/2=80] (3cdc (3dcd | z8 | z8 | z8 | z4 z2[Q:1/2=80]!mf! c2 | %24
 (3cd=B[Q:1/2=95] (3ced (3c[Q:1/2=110]d=B[Q:1/2=120] (3c^fg |[Q:1/2=130] (3cd=B (3ced (3cdB (3caf | %26
[Q:1/2=134]!<(! (3=efe (3^deg (3bc'b (3=ab!<)!_d' |!>(! (3c'd'c' (3=bc'g (3a_ba (3ga=e | %28
 (3fgf (3=efc (3d_ed (3cd!>)!=B | (3cdc (3=BcG (3A_BA (3GAF |!<(! (3=EGB (3d=eg (3bd'c' (3ba!<)!g | %31
!>(! (3bc'a (3gaf (3=egf (3.e.f!>)!._d |[Q:1/2=140] (3.c.d.=B (3.c.e.d (3.c.d.=B (3.c.^f.g | %33
 (3.c.d.=B (3.c.e.d (3.c.d.B (3.c.a.f |!<(! (3._e.f.e (3.=d.e.g (3.b.c'.b (3.=a.b!<)!.f' | %35
!>(! (3e'f'e' (3=d'e'=b (3c'_d'c' (3bc'g | (3a_ba (3ga=e (3fgf (3ef!>)!d | %37
 (3.c.d.B!<(! (3.G.A.B (3.c.d.e (3.f.g!<)!.a |!>(! (3.g.a.f (3.e.f.d (3.c.d.B (3.c.F!>)!.G | %39
!p! (3.A.B.A (3.G.A.=A (3.B.c.B (3.c.F.G | (3._A.B.A (3.G.A.=A (3.B.c.B (3.c.F.G | %41
 (3._A.B.A (3.G.A.B (3.c.d.c (3.=B.c.d | %42
 (3.c.d.c[Q:1/2=130] (3.=B.c.d[Q:1/2=110] (3.c.d.c[Q:1/2=90] (3.d.c.d | %43
[Q:1/2=80]!mp! (3([Ac][Bd]=B (3[Ac][Ge][_Bd][Q:1/2=90] (3[Ac][Bd]=B (3[Ac][_B^f][=eg] | %44
[Q:1/2=100] (3[Ac][Bd]=B (3[Ac][Ge][_Bd] (3[Ac][Bd]=B (3[Ac][Ba][cf] | %45
 (3[c=e][df][ce] (3[=B^d][ce][dg] (3[eb][fc'][gb] (3[f=a][gb][a_d'] | %46
!mf!!>(! (3[ac'][bd'][ac'] (3[g=b][ac'][eg] (3[fa][g_b][fa] (3[eg][da][c=e] | %47
 (3[df][eg][df] (3[c=e][Bf][Ac] (3[Gd][A_e][Gd] (3[Ac][Bd]!>)!!mp![G=B] | %48
 (3[Ac][Bd][Ac] (3[G=B][Fc][EG] (3[DA][C_B][DA] (3[EG][DA][=DF] | %49
!<(! (3[G,=E][B,G][DB] (3[Ed][G=e][Bg] (3[db][ed'][fc'] (3[gb][fa]!<)!!mf![eg] | %50
!>(! (3[gb][fc'][ea] (3[dg][ca][Bf] (3[A=e][Bg][Af] (3[Ge][Af]!>)![Fd] | %51
!mp! (3[Ec][Fd][=D=B] (3[Ec][G_e][Fd] (3[Ec][Fd][D=B] (3[Fc][_B^f][=Bg] | %52
 (3[Ec][Fd][=D=B] (3[Ec][G_e][Fd] (3[Ec][Fd][D=B] (3[Fc][_ca][Bf] | %53
[Q:1/2=100] (3!>![_E_e]fe[Q:1/2=115] (3!>![=D=d]eg[Q:1/2=125] (3!>![Bb]c'b (3!>![=A=a]bf' | %54
[Q:1/2=130]!f!!>(! (3!>![ee']f'e' (3!>![=d=d']e'=b (3!>![cc']_d'c' (3!>![=Bb]c'g | %55
 (3!>![Aa]_ba (3!>![Gg]a=e (3!>![Ff]gf (3!>![=Ee]f!>)!d | %56
 (3!>![Cc]dB!<(! (3!>![G,G]AB (3!>![Cc]de (3!>![Ff]g!<)!a | %57
!>(! (3!>![Gg]af (3!>![Ee]fd (3!>![Cc]dB (3!>![Cc]F!>)!G | %58
!mp! (3!>![A,A]BA (3!>![G,G]A=A (3!>![B,B]cB (3!>![Cc]FG | %59
 (3!>![_A,_A]BA (3!>![G,G]A=A (3!>![B,B]cB (3!>![Cc]FG | %60
 (3!>![_A,_A]BA (3!>![G,G]AB!<(! (3!>![Cc]dc (3!>![=B,=B]cd | %61
 (3[Ee]f!<)!!f!e!>(! (3[Ff]ed (3[Cc]dc (3[Dd]=G!>)!=A | (3[B,B]cB (3[=B,=A]B=B (3[Cc]dc (3[Dd]=GA | %63
 (3[B,_B]cB (3[=A,=A]B=B (3[Cc]dc (3[Dd]=GA | (3[B,B]cB!<(! (3[=A,=A]Bc (3[=D=d]ed (3[^C^c]de | %65
 (3[Ff]g!<)!f!>(! (3[Gg]fe (3[=D=d]ed (3[Ee]=A!>)!=B | %66
!f! (3[Cc]_dc!<(! (3[=B,=B]cg (3[Aa]_ba (3[Gg]a!<)!=e | %67
!>(! (3[Ff]gf (3[E_e]dc (3[B,B]AG (3[F,F]G!>)!A | %68
!f! (3[Cc]_dc!<(! (3[=B,=B]cg (3[Aa]_ba (3[Gg]a!<)!=e | %69
!>(! (3[Ff]gf (3[E_e]d!>)!c (3[B,B]AG (3[DF]G[A,A] | %70
 (3[G,G]gf (3[=E=e]dc (3[B,B]AG[Q:1/4=217]"^smorz." (3[DF]G[A,A] | %71
[Q:1/4=213]"^213" (3[G,G]gf[Q:1/4=209]"^209" (3[=E=e]dc[Q:1/4=203]"^203" (3[B,B]AG[Q:1/4=197]"^197" (3FG[A,A] | %72
 (3[G,G][Dd][Cc] (3[=B,=B][Cc][Dd]!<(! (3[Cc][Dd][Cc] (3[B,B][Cc][Dd] | %73
 (3!>![cc'][dd']!<)!!mf![cc'] (3!>![=B=b][cc'][dd'] (3!>![cc'][dd'][cc'] (3!>![dd'][cc'][dd']) | %74
[Q:1/4=224]"^sempre piano"[Q:1/2=90] (3(!>![cc'][dd'][=B=b] (3!>![cc'][ee'][dd'] (3!>![cc'][dd'][=B=b] (3!>![cc'][^f^f'][gg'] | %75
 (3!>![cc'][dd'][=B=b] (3!>![cc'][ee'][dd'] (3!>![cc'][dd'][Bb] (3!>![cc'][aa']!mf![ff'] | %76
!<(! (3!>![=e=e'][ff'][ee'] (3!>![^d^d'][ee'][gg'] (3!>![bb'][c'c''][bb'] (3!>![=a=a'][bb']!<)![_d'd''] | %77
!ff!!>(! (3!>![c'c''][d'd''][c'c''] (3!>![=b=b'][c'c''][gg'] (3!>![aa'][_b_b'][aa'] (3!>![gg'][aa'][=e=e'] | %78
 (3!>![ff'][gg'][ff'] (3!>![=e=e'][ff'][cc'] (3!>![dd'][_e_e'][dd'] (3!>![cc'][dd']!>)!!f![=B=b] | %79
 (3!>![cc'][dd'][cc'] (3!>![=B=b][cc'][Gg] (3!>![Aa][_B_b][Aa] (3!>![Gg][Aa][Ff] | %80
!f! (3!>![=E=e][Gg][Bb]!<(! (3!>![dd'][e=e'][gg'] (3!>![bb'])(.[d'd''].[c'c''] (3!>!.[bb'].[aa']!<)!!ff!.[gg']) | %81
!>(! (3(!>![bb'][c'c''][aa'] (3!>![gg'][aa'][ff'] (3!>![=e=e'][gg'][ff'] (3!>![ee'][ff']!>)![dd'] | %82
!mf! (3!>![cc'][dd'][=B=b] (3!>![cc'][ee'][dd'] (3!>![cc'][dd'][=B=b] (3!>![cc'][^f^f'][gg'] | %83
 (3!>![cc'][dd'][=B=b] (3!>![cc'][ee'][dd'] (3!>![cc'][dd'][Bb] (3!>![cc'][aa']!mf![ff'] | %84
!<(! (3!>![=e=e'][ff'][ee'] (3!>![^d^d'][ee'][gg'] (3!>![bb'][c'c''][bb'] (3!>![=a=a'][bb']!<)![_d'd''] | %85
[Q:1/2=110]!f! (3!>![c'c'']!mp![f'a'][_f'g'] (3[e'_g'][=d'=f'][_d'_f'] (3[c'e'][=b=d'][_b_d'] (3[=ac'][_a_c'][gb] | %86
 (3[_g=a][f_a][=e=g] (3[_e_g][=df][_d=e] (3[c_e][d=e][=df] (3[_eg][=e=g][fa] | %87
 (3[f=a][f_a]!mf![=eg][Q:1/2=90]!>(! (3[ff'][gd'][fb] (3[dg][Bf][Gd] (3[FB][DG]!>)![Fd] | %88
!mp![Q:1/2=100] (3[Ec][Fd][D=B] (3[Ec][CA][D_B] (3[Ec][Fd][Ec] (3[Fd][Af][Ge] | %89
 (3[Fc][Gd][D_B] (3[Ec][Ge][Fd] (3[DB][Ec][CA] (3[DB][Fd][Ec] | %90
[Q:1/2=100]!mf! (3!>![DF])[ac'][gb] (3[fa][eg][df] (3[ce][Bd][Ac] (3[GB][Fc][Dd] | %91
 (3[Cc][ac'][gb]!<(! (3[fa][eg][df] (3[ce][Bd][Ac] (3.[GB].[Fc]!>![G=e]!<)! | %92
!f!!<(! (3!>!.[Af].a!>!.[af'] (3.a'!>!.[a'f''].a'' (3:2:2!>!.[f'a'f''] z2 (3:2:2.[Afa] z2!<)! | %93
!ff! [A,CF] z z2!fff! !>!.[f'a'c''f''] z z2 |] %94
V:2
 z2 |!ped! (3(=E,2 G2 C2) (3(_B,2 G2 C2)!ped-up! |!ped! (3(F,2 A2 C2) (3(A,2 A2 C2)!ped-up! | %3
[K:treble]!ped! (3(G,2 B2 =E2) (3(_D2 B2 E2)!ped-up! |!ped! (3(A,2 A2 F2) (3(C2 A2 F2)!ped-up! | %5
[K:bass]!ped! (3(B,,2 D2 G,2) (3(F,2 D2 G,2)!ped-up! |!ped! (3(C,2 C2 A,2) (3(F,2 C2 A,2)!ped-up! | %7
!ped! (3(C,2 =E2 B,2) (3(G,2 E2 B,2)!ped-up! |!ped! (3(F,2 F2 C2) (3(A,2 F2 D2)!ped-up! | %9
!ped! (3(=E,2 G2 C2) (3(B,2 G2 C2)!ped-up! |!ped! (3(F,2 A2 C2) (3(A,2 A2 C2)!ped-up! | %11
[K:treble]!ped! (3(G,2 B2 _E2) (3(_D2 B2 E2)!ped-up! |!ped! (3(!>!A,2 A2 E2) (3(C2 A2 E2)!ped-up! | %13
[K:bass]!ped! (3(D,2 F2 B,2) (3(A,2 F2 B,2)!ped-up! |!ped! (3(E,2 E2 C2) (3(A,2 E2 C2)!ped-up! | %15
!ped! (3(E,2 E2 D2) (3(G,2 E2 D2)!ped-up! |!ped! (3(A,,2 C2 E,2)!ped-up! (3(!>!_F,2 D2 E,2) | %17
!ped! (3(A,,2 C2 E,2)!ped-up! (3(!>!_F,2 D2 E,2) |!ped! (3(A,,2 C2 E,2)!ped-up! (3.C,2 .G,2 .B,2 | %19
 =E2 z2 z4 | z8 | z8 | z8 | z8 |!ped! (3(=E,2 G2 C2) (3(_B,2 G2 C2)!ped-up! | %25
!ped! (3(F,2 A2 C2) (3(A,2 A2 C2)!ped-up! |[K:treble] (3(!>!G,2 B2 =E2) (3(!>!_D2 B2 E2) | %27
 (3(!>!A,2 A2 F2) (3(!>!C2 A2 F2) |[K:bass] (3(!>!B,,2 D2 !>!G,2) (3(!>!F,2 D2 !>!G,2) | %29
 (3(!>!C,2 C2 !>!A,2) (3(!>!F,2 C2 !>!A,2) |!ped! (3(!>!C,2 =E2 B,2) (3(!>!G,2 E2 B,2)!ped-up! | %31
 (3(!>!F,2 F2 C2) (3(!>!A,2 F2 D2) | (3(!>!.=E,2 .G2 !>!.C2) (3(!>!.B,2 .G2 !>!.C2) | %33
 (3(!>!.F,2 .A2 !>!.C2) (3(!>!.A,2 .A2 !>!.C2) | %34
[K:treble] (3(!>!G,2 B2 !>!_E2) (3(!>!_D2 B2 !>!E2) | %35
!ped! (3(!>!A,2 A2 !>!E2) (3(!>!C2 A2 !>!E2)!ped-up! | %36
[K:bass]!ped! (3(!>!D,2 F2 !>!B,2) (3(!>!A,2 F2 !>!B,2)!ped-up! | %37
 (3(!>!E,2 E2 C2) (3(!>!A,2 E2 C2) | (3(!>!.E,2 .E2 .D2) (3(!>!.G,2 .E2 .D2) | %39
 (3(!>!.A,,2 .C2 !>!.E,2) (3(!>!._F,2 .D2 !>!.E,2) | %40
 (3(!>!.A,,2 .C2 !>!.E,2) (3(!>!._F,2 .D2 !>!.E,2) | (3(.A,,2 .C2 .E,2) (3(.C,2 .G,2 .B,2 | %42
 =E2) z2 z4 |!ped! (3:2:4(!>!=E,,!>!=E, G2 C2) (3(!>![B,,B,]2 G2 C2)!ped-up! | %44
 (3(!>![F,,F,]2 A2 C2) (3(!>![A,,A,]2 A2 C2) | %45
!<(! (3(!>![G,,G,]2 B2 =E2) (3(!>![D,_D]2 B2!<)! E2) | (3(!>![A,,A,]2 A2 F2) (3(!>![C,C]2 A2 F2) | %47
 (3(!>![B,,,B,,]2 D2 G,2) (3(!>![F,,F,]2 D2 G,2) | %48
{/C,,,} (3(!>![C,,C,]2 C2 A,2) (3(!arpeggio!!>![C,,A,,F,]2 C2 A,2) | %49
 (3(!>![C,,C,]2 =E2 B,2) (3(!>![E,,E,]2 E2 B,2) | %50
 (3(!>![F,,F,]2 F2 !>![C,C]2) (3(!>![A,,A,]2 F2 D2) | %51
 (3(!>![=E,,=E,]2 G2 !>![C,C]2) (3(!>![B,,B,]2 G2 !>![C,C]2) | %52
 (3(!>![F,,F,]2 A2 !>![C,C]2) (3(!>![A,,A,]2 A2 !>![C,C]2) | %53
!<(! (3(!>!G,,2 B2 _E2) (3(D,2 B2!<)! E,2) | (3(A,2 A2 E2) (3(C2 A2 E2) | %55
[K:bass] (3(D,2 F2 B,2) (3(A,2 F2 B,2) | (3(E,2 E2 C2) (3(A,2 E2 C2) | %57
 (3(E,2 E2 D2) (3(G,2 E2 D2) | (3([A,,,A,,]2 C2 E,2) (3(!>![_F,,_F,]2 D2 E,2) | %59
 (3([A,,,A,,]2 C2 E,2) (3(!>![_F,,_F,]2 D2 E,2) | (3([A,,,A,,]2 C2 E,2) (3([_G,,,_G,,]2 E2 B,2) | %61
 (3([_G,,_G,]2 E2 B,2) (3([F,,F,]2 E2 =A,2) | (3(B,,2 D2 F,2) (3(!>!_G,2 E2 F,2) | %63
 (3(B,,2 D2 F,2) (3(!>!_G,2 E2 F,2) | (3(B,,2 D2 F,2) (3(_A,,2 F2 C2) | %65
 (3(=D,2 C2 F,2) (3(G,,2 =B,2 F,2) | (3(C,2 =E2 _B,2) (3(A,2 F2 C2) | %67
 (3(C,2 D2 A,2) (3(F,2 D2 A,2) | (3(C,2 =E2 _B,2) (3(A,2 F2 C2) | (3(C,2 D2 A,2) (3(F,2 D2 A,2) | %70
 (3(C,2 =E2 G,2) (3([F,,F,]2 D2 A,2) | (3(C,2 =E2 G,2) (3([F,,F,]2 D2 A,2) | %72
!ped! (3(C,2 G,2 =E2) z4 | z8!ped-up! | (3(!>![=E,,=E,]2 G2 C2) (3(!>![B,,B,]2 G2 C2) | %75
 (3(!>![F,,F,]2 A2 C2) (3(!>![A,,A,]2 A2 C2) | %76
 (3(!>![G,,G,]2 B2 !>![=E,=E]2) (3(!>![D,_D]2 B2 !>![E,E]2) | %77
 (3(!>![A,,A,]2 A2 F2) (3(!>![C,C]2 A2 F2) | %78
 (3(!>![B,,,B,,]2 D2 !>![G,,G,]2) (3(!>![F,,F,]2 D2 !>![G,,G,]2) | %79
 (3(!>![C,,C,]2 C2 !>![A,,A,]2) (3(!>![F,,F,]2 C2 !>![A,,A,]2) | %80
 (3(!>![C,,C,]2 =E2 !>![B,,B,]2) (3(!>![G,,G,]2 E2 !>![B,,B,]2) | %81
 (3(!>![F,,F,]2 F2 !>![C,C]2) (3(!>![A,,A,]2 F2 !>![D,D]2) | %82
 (3(!>![=E,,=E,]2 G2 !>![C,C]2) (3(!>![B,,B,]2 G2 !>![C,C]2) | %83
 (3(!>![F,,F,]2 A2 !>![C,C]2) (3(!>![A,,A,]2 A2 C2) | %84
 (3(!>![G,,G,]2 B2 !>![=E,=E]2) (3(!>![D,_D]2 B2 !>![E,E]2) | %85
!ped! (3(!>![A,,A,]2 A2 F2) (3(C2 A2 F2)!ped-up! |[K:bass] (3(D,2 A2 F2) (3D2 z2 z2 | %87
[K:bass] (3(!>![B,,,B,,]2 D2 !>![G,,G,]2) (3(!>![F,,F,]2 D2 !>![G,,G,]2) | %88
 (3(!>![C,,C,]2 F2 !>![C,C]2) (3(!>![A,,A,]2 F2 !>![D,D]2) | %89
 (3(!>![C,,C,]2 _E2 !>![G,,G,]2) (3(!>![F,,F,]2 D2 !>![=E,,=E,]2) | %90
 (3(!>![F,,F,]2 A2 !>![C,C]2) (3(!>![B,,B,]2 G2 D2) | %91
 (3(!>![F,,F,]2 A2 !>![C,C]2) (3(!>![B,,B,]2 G2 !>![D,D]2) | %92
 .[C,A,C] z .[A,,F,A,] z .[F,,C,F,] z .[C,,A,,C,] z | %93
 [F,,,A,,,F,,] z z2 !>!.[F,,,A,,,C,,F,,] z z2 |] %94

